X:1
T:Rorate Coeli
T:Advent plainchant, arr. Philip Le Bas
T:Rorate Coeli
T:Copyright © Philip Le Bas, 2018 The English words of the "Advent Prose" are from the Archbishops' Council of the Church of England, CommonWorship: www.churchofengland.org/media/41152/tandsadvent.pdf
T:for unaccompanied SATB choir
T:Copyright © Philip Le Bas, 2018 The English words of the &quot;Advent Prose&quot; are from the Archbishops' Council of the Church of England, CommonWorship: www.churchofengland.org/media/41152/tandsadvent.pdf
T:Copyright © Philip Le Bas, 2018 The English words of the &quot;Advent Prose&quot; are from the Archbishops' Council of the Church of England, CommonWorship: www.churchofengland.org/media/41152/tandsadvent.pdf
T:Copyright © Philip Le Bas, 2018 The English words of the &quot;Advent Prose&quot; are from the Archbishops' Council of the Church of England, CommonWorship: www.churchofengland.org/media/41152/tandsadvent.pdf
T:Copyright © Philip Le Bas, 2018 The English words of the &quot;Advent Prose&quot; are from the Archbishops' Council of the Church of England, CommonWorship: www.churchofengland.org/media/41152/tandsadvent.pdf
T:Copyright © Philip Le Bas, 2018 The English words of the &quot;Advent Prose&quot; are from the Archbishops' Council of the Church of England, CommonWorship: www.churchofengland.org/media/41152/tandsadvent.pdf
T:Copyright © Philip Le Bas, 2018 The English words of the &quot;Advent Prose&quot; are from the Archbishops' Council of the Church of England, CommonWorship: www.churchofengland.org/media/41152/tandsadvent.pdf
C:Advent plainchant, arr. Philip Le Bas
Z:Copyright © Philip Le Bas, 2018
Z:The English words of the "Advent Prose" are from the Archbishops' Council of the Church of England, CommonWorship:
Z:www.churchofengland.org/media/41152/tandsadvent.pdf
%%score [ ( 1 2 ) ( 3 4 ) ]
L:1/8
Q:1/4=60
M:13/8
K:Dmin
V:1 treble nm="SOPRANO ALTO" snm="S."
V:2 treble 
V:3 bass nm="P2" snm="B."
V:4 bass 
V:1
"^At a slow speaking pace, rubato" z13 |[M:10/8] z10 | %2
w: ||
[M:13/8]"^Altos:""^Sopranos:"!mp!!<(! F (GA)A!<)!!f! !tenuto!dc!>(! (cB)A (A2!>)!!mf! G2) | %3
w: Ro- ra- * te coe- li de _ su- per _|
[M:12/8] A BA!>(! (GF)E (FE)!>)!!pp! !fermata!D4 |[M:11/8]"^Faster, but still rubato" z11 | %5
w: et nu- bes plu- * ant ju- * stum.||
[M:12/8] z12 | z12 |[M:8/8] z8 |[M:12/8] z12 |[M:11/8] z11 |[M:10/8] z10 | %11
w: ||||||
[M:13/8]!mp!"^Tempo I"!<(! F (GA)A!<)!!f! !tenuto!dc!>(! (cB)A (A2!>)!!mf! G2) | %12
w: Ro- ra- * te coe- li de _ su- per _|
[M:12/8] A BA!>(! (GF)E (F!>)!E)!pp! !fermata!D4 | %13
w: et nu- bes plu- * ant ju- * stum.|
[M:14/8]!mf!"^All sopranos and altos:""^Faster, but still rubato" FG AAA AA AAA (AB) A2 | %14
w: 2.~We have sinned and be- come like one who is un- * clean;|
[M:9/8] AAG BA A G F2 |[M:17/8] ABc cc ccc !tenuto!c2 c (dc) BA A2 |[M:12/8] FG AAA (FG)F (F2 E2) | %17
w: we have all wi- thered like a leaf;|and our in- i- qui- ties like the wind have swept _ us a- way.|You have hid- den your face _ from us, _|
[M:14/8] FG AA (AB)A (GF)E FE !fermata!D2 | %18
w: and a- ban- doned us _ to our _ in- i- qui- ties.|
[M:13/8]!pp!"^Tempo I"!<(! F (GA)A!<)!!p! !tenuto!dc!>(! (cB)A (A2!>)!!pp! G2) | %19
w: Ro- ra- * te coe- li de _ su- per _|
[M:12/8] A BA!>(! (GF)E (FE)!>)!!ppp! !fermata!D4 | %20
w: et nu- bes plu- * ant ju- * stum.|
[M:10/8]!mp!"^Slightly faster, but still rubato" FGA AAA AG A2 |[M:11/8] AA AAA Gc (cB) A2 | %22
w: 3.~You are my wit- nes- ses, says the Lord,|and my ser- vants whom I have cho- * sen,|
 AAA dc BA (AG) F2 |[M:10/8] ABc (cd)c (cB A2) | A AA GBA (AG) F2 | %25
w: that you may know me and be- lieve _ me.|I my- self am _ the Lord, _ _|and none but me can de- li- * ver;|
[M:16/8] FF (GA) A2 (AB)A (GF)E (FE !fermata!D2) | %26
w: what my hand _ holds, none _ can snatch _ a- way. _ _|
[M:13/8]!mp!"^Tempo I"!<(! F (GA)A!<)!!f! !tenuto!dc!>(! (cB)A (A2!>)!!mf! G2) | %27
w: Ro- ra- * te coe- li de _ su- per _|
[M:12/8] A BA!>(! (GF)E (FE)!>)!!pp! !fermata!D4 | %28
w: et nu- bes plu- * ant ju- * stum.|
[M:10/8]!pp!"^Slightly slower, with growing intensity" FGA AGc (cB) A2 |[M:10/8] AA dc BA GF F2 | %30
w: 4.~Com- fort, O com- fort my peo- * ple;|my sal- va- tion shall not be de- layed.|
[M:16/8]!p! AB (cd) cB AAG FFB (B2!mp! A2) |[M:12/8] (dc) (BA)G (AF)G F2 E2 | %32
w: I have swept _ your of- fen- ces a- way like a cloud; _|fear _ not _ for I _ will save you;|
[M:11/8]!mf! FGA (dc) (BA) (AG F2) |[M:17/8]!f! A AA AA (AB)A A2 (GF)E (!tenuto!FE) !fermata!D2 | %34
w: I am the Lord _ your _ God, _ _|the Ho- ly One of Is- * ra- el, your _ re- dee- * mer.|
!p!"^Tempo I" F (GA)A !tenuto!dc (cB)A (A2 G2) |[M:10/8] A BA (GF)E (FE) !fermata!D2 | %36
w: Ro- ra- * te coe- li de _ su- per _|et nu- bes plu- * ant ju- * stum,|
[M:14/8]!mp!"^rit." A BA!<(! (GF)E ((F2!<)! E2)!f! !fermata!D2) x2 |] %37
w: et nu- bes plu- * ant ju- * stum.|
V:2
 x13 |[M:10/8] x10 |[M:13/8] F F2 G !tenuto!FE D2 D (CB, C2) | %3
[M:12/8] F DF (ED)C (DE) !fermata!D4 |[M:11/8] x11 |[M:12/8] x12 | x12 |[M:8/8] x8 |[M:12/8] x12 | %9
[M:11/8] x11 |[M:10/8] x10 |[M:13/8] F F2 G !tenuto!FE D2 D (CB, C2) | %12
[M:12/8] F DF (ED)C (DE) !fermata!D4 |[M:14/8] x14 |[M:9/8] x9 |[M:17/8] x17 |[M:12/8] x12 | %17
[M:14/8] x14 |[M:13/8] F F2 G !tenuto!FE D2 D (CB, C2) |[M:12/8] F DF (ED)C (DE) !fermata!D4 | %20
[M:10/8] FED FGF DE F2 |[M:11/8] AG FDF EF G2 F2 | FDF BA DC (DE) F2 |[M:10/8] FGF B2 A (G2 F2) | %24
 G FD EDC (DE) F2 |[M:16/8] DD E2 F2 (ED)F A2 A, (B,C !fermata!D2) | %26
[M:13/8] F F2 G !tenuto!FE D2 D (CB, C2) |[M:12/8] F DF (ED)C (DE) !fermata!D4 | %28
[M:10/8] FFF GGF E2 F2 |[M:10/8] DD FD DF EE F2 |[M:16/8] FF E2 EE FFF DEF (G2 F2) | %31
[M:12/8] G2 D2 D (FD)E D2 C2 |[M:11/8] A,B,C D2 (DE) F4 | %33
[M:17/8] E DD DF E2 C D2 (ED)C (!tenuto!DC/B,/) !fermata!A,2 | x13 |[M:10/8] x10 | %36
[M:14/8] F DF (ED)C ((D2 CB,) !fermata!A,2) x2 |] %37
V:3
"^Tenor orbass solo:"!mf!"^At a slow speaking pace, rubato" F, (G,A,)A, !tenuto!DC (CB,)A, (A,2 G,2) | %1
w: *Ro- ra- * te coe- li de _ su- per _|
[M:10/8] A, B,"^* One possible translation:Drop down, O heavens, from above,and let the skies pour down justice.   (or: \"...pour down the Just One.\")"A, (G,F,)E,!>(! (F,E,)!>)!!p! !fermata!D,2 | %2
w: et nu- bes plu- * ant ju- * stum,|
[M:13/8]"^Basses:""^Tenors:"!<(! F, F,2 E,!<)! !tenuto!F,G,!>(! (A,G,)F, (E,F,!>)! G,2) | %3
w: |
[M:12/8] F, G,A,!>(! C2 B, (A,G,)!>)! (F, E, !fermata!D,2) | %4
w: |
[M:11/8]!mf!"^All tenors and basses:""^Faster, but still rubato" F,G,A, A,G,A, (A,B,)A, A,2 | %5
w: 1.~Turn your fierce an- ger from us, _ O Lord,|
[M:12/8] A,A, A, A, A,G, B,A, (G, F,) F,2 | A,B,C CC CCCC C C2 |[M:8/8] (CD) CC B,A, A,2 | %8
w: and re- mem- ber not our sins for e- * ver.|Your ho- ly ci- ties have be- come a de- sert,|Zi- * on a wil- der- ness,|
[M:12/8] F,G,A, A,A, (G,B,)A, (A, G,) F,2 |[M:11/8] A, A,A,A, A,G,C (CB, A,2) | %10
w: Je- ru- sa- lem a de- * so- la- * tion;|our ho- ly and beau- ti- ful house, _ _|
[M:10/8] (A,B,)A, (G,F,)E, (F,E,) !fermata!D,2 | %11
w: where _ our fa- * thers praised _ you.|
[M:13/8]!<(! F, F,2 E,!<)! !tenuto!F,G,!>(! (A,G,)F, (E,F,!>)! G,2) | %12
w: |
[M:12/8] F, G,A,!>(! C2 B, (A,G,)!>)! (F, E, !fermata!D,2) |[M:14/8] z14 |[M:9/8] z9 | %15
w: |||
[M:17/8] z17 |[M:12/8] z12 |[M:14/8] z14 | %18
w: |||
[M:13/8]!<(! F, F,2 E,!<)! !tenuto!F,G,!>(! (A,G,)F, (E,F,!>)! G,2) | %19
w: |
[M:12/8] F, G,A,!>(! C2 B, (A,G,)!>)! (F, E, !fermata!D,2) |[M:10/8] F,G,A, A,A,A, A,G, A,2 | %21
w: ||
[M:11/8] A,A, A,A,A, G,C (CB,) A,2 | A,A,A, DC B,A, (A,G,) F,2 |[M:10/8] A,B,C (CD)C (CB, A,2) | %24
w: |||
 A, A,A, G,B,A, (A,G,) F,2 |[M:16/8] F,F, (G,A,) A,2 (A,B,)A, (G,F,)E, (F,E, !fermata!D,2) | %26
w: ||
[M:13/8]!<(! F, F,2 E,!<)! !tenuto!F,G,!>(! (A,G,)F, (E,F,!>)! G,2) | %27
w: |
[M:12/8] F, G,A,!>(! C2 B, (A,G,)!>)! (F, E, !fermata!D,2) |[M:10/8] A,B,C CCG, (A,G,) F,2 | %29
w: ||
[M:10/8] F,F, F,F, G,D CB, A,2 |[M:16/8] A,A, A,2 A,A, F,G,A, B,CD (D2 C2) | %31
w: ||
[M:12/8] (B,A,) G,2 B, C2 C (B, A,) G,2 |[M:11/8] F,F,G, A,2 B,2 (CG, A,2) | %33
w: ||
[M:17/8] G, F,E, F,F, G,2 G, F,2 (E,F,)G, (!tenuto!A,G,) !fermata!F,2 | %34
w: |
 F, (G,A,)A, !tenuto!DC (CB,)A, (A,2 G,2) |[M:10/8] A, B,A, (G,F,)E, (F,E,) !fermata!D,2 | %36
w: ||
[M:14/8] F, G,A,!<(! C2 B, ((A,2-!<)!"^Revised Seal 2018" A,G,) !fermata!^F,2) x2 |] %37
w: |
V:4
 x13 |[M:10/8] x10 |[M:13/8] F, (E,D,)C, !tenuto!B,,B,, G,,2 B,, (C,D, E,2) | %3
[M:12/8] D, F,D, B,,2 G,, (B,,C,) !fermata!D,4 |[M:11/8] x11 |[M:12/8] x12 | x12 |[M:8/8] x8 | %8
[M:12/8] x12 |[M:11/8] x11 |[M:10/8] x10 |[M:13/8] F, (E,D,)C, !tenuto!B,,B,, G,,2 B,, (C,D, E,2) | %12
[M:12/8] D, F,D, B,,2 G,, (B,,C,) !fermata!D,4 |[M:14/8] x14 |[M:9/8] x9 |[M:17/8] x17 | %16
[M:12/8] x12 |[M:14/8] x14 |[M:13/8] F, (E,D,)C, !tenuto!B,,B,, G,,2 B,, (C,D, E,2) | %19
[M:12/8] D, F,D, B,,2 G,, (B,,C,) !fermata!D,4 |[M:10/8] F,E,D, F,G,F, D,E, F,2 | %21
[M:11/8] A,G, F,D,F, E,F, G,2 F,2 | F,D,F, B,A, D,C, (D,E,) F,2 |[M:10/8] F,G,F, B,2 A, (G,2 F,2) | %24
 G, F,D, E,D,C, (D,E,) F,2 |[M:16/8] D,D, E,2 F,2 (E,D,)F, A,2 A,, (B,,C, !fermata!D,2) | %26
[M:13/8] F, (E,D,)C, !tenuto!B,,B,, G,,2 B,, (C,D, E,2) | %27
[M:12/8] D, F,D, B,,2 G,, (B,,C,) !fermata!D,4 |[M:10/8] F,F,F, E,E,D, C,2 D,2 | %29
[M:10/8] D,C, B,,A,, G,,B,, C,C, D,2 |[M:16/8] D,D, A,,2 C,C, D,E,F, G,G,G, F,4 | %31
[M:12/8] G,2 B,,2 B,, A,,2 A,, B,,2 C,2 |[M:11/8] D,D,E, F,2 G,2 (F,E, D,2) | %33
[M:17/8] D, C,C, B,,B,, A,,2 A,, B,,2 (C,D,)E, !tenuto!D,2 !fermata!D,2 | x13 |[M:10/8] x10 | %36
[M:14/8] D, F,D, B,,2 G,, (B,,2 C,2) !fermata!D,2 x2 |] %37

